src/images/svg/symbols/ripple_flag.svg

<svg width="32" height="32" viewBox="0 0 32 32" fill="none" xmlns="http://www.w3.org/2000/svg">
<path d="M0 16C0 7.16344 7.16344 0 16 0C24.8366 0 32 7.16344 32 16C32 24.8366 24.8366 32 16 32C7.16344 32 0 24.8366 0 16Z" fill="#171C21"/>
<path d="M23.97 9.37988H21.6558L17.9983 12.9996C16.8945 14.092 15.1049 14.092 14.0012 12.9996L10.3436 9.37988H8.0295L12.8441 14.1447C14.5869 15.8696 17.4126 15.8696 19.1554 14.1447L23.97 9.37988Z" fill="white"/>
<path d="M8 22.6299H10.3141L14.0014 18.9807C15.1052 17.8883 16.8948 17.8883 17.9985 18.9807L21.6858 22.6299H24L19.1557 17.8356C17.4128 16.1108 14.5872 16.1108 12.8443 17.8356L8 22.6299Z" fill="white"/>
</svg>

<svg width="32" height="32" fill="none" xmlns="http://www.w3.org/2000/svg"><path d="M0 16C0 7.163 7.163 0 16 0s16 7.163 16 16-7.163 16-16 16S0 24.837 0 16Z" fill="#171C21"/><path d="M23.97 9.38h-2.314L17.998 13a2.847 2.847 0 0 1-3.997 0l-3.657-3.62H8.03l4.814 4.765a4.496 4.496 0 0 0 6.311 0L23.97 9.38ZM8 22.63h2.314l3.687-3.65a2.847 2.847 0 0 1 3.998 0l3.687 3.65H24l-4.844-4.794a4.496 4.496 0 0 0-6.312 0L8 22.63Z" fill="#fff"/></svg>
